X:1

T:Whinny Hills of Leitrim, The [1]

L:1/8

M:9/8

K:D

A|FAB FAB AFD|FAB FAB d2A|FAB FAB AFD|FAd edc B2:|

A|f2f efe d3|f2f def g3|f2f efe dBA|AFA dfa b2a|f2f efe d3|

f2f def gfg|afd gfe dBA|BAF DFA B2||

